app/style/icons/docsGrey.svg

<svg viewBox="0 0 40 40" xmlns="http://www.w3.org/2000/svg"><path d="m7.778 20h24.444v2.222h-24.444z" fill="#091440"/><path d="m7.778 24.444h12.178v2.222h-12.178z" fill="#091440"/><path d="m62.5 52.858v7.7h28.889v-35.558h-28.889zm2.222-18.969h24.445v2.222h-24.445zm0 4.444h24.445v2.222h-24.445zm0 4.444h24.445v2.223h-24.445zm0 4.444h12.178v2.222h-12.178z" fill="#c4cbd2" transform="translate(-56.944 -22.778)"/><path d="m7.778 15.555h24.444v2.222h-24.444z" fill="#091440"/><path d="m7.778 11.111h24.444v2.222h-24.444z" fill="#091440"/><path d="m0 0h40v40h-40z" fill="none"/></svg>

<svg xmlns="http://www.w3.org/2000/svg" viewBox="0 0 40 40"><defs><style>.a{fill:#091440;}.b{fill:#c4cbd2;}.c{fill:none;}</style></defs><g transform="translate(1393 2363)"><g transform="translate(-1387.444 -2360.778)"><rect class="a" width="24.444" height="2.222" transform="translate(2.222 17.778)"/><rect class="a" width="12.178" height="2.222" transform="translate(2.222 22.222)"/><path class="b" d="M62.5,52.858v7.7H91.389V25H62.5Zm2.222-18.969H89.167v2.222H64.722Zm0,4.444H89.167v2.222H64.722Zm0,4.444H89.167V45H64.722Zm0,4.444H76.9v2.222H64.722Z" transform="translate(-62.5 -25)"/><rect class="a" width="24.444" height="2.222" transform="translate(2.222 13.333)"/><rect class="a" width="24.444" height="2.222" transform="translate(2.222 8.889)"/></g><rect class="c" width="40" height="40" transform="translate(-1393 -2363)"/></g></svg>
